X: 126
T:Martin Wynne's Reel No. 2
T:Martin Wynn's Reel No. 2
T:Martin Wynne's Reel
M:C|
L:1/8
C:Martin Wynne
R:Reel
K:D
F2AF E2FE|DB,~B,2 DB,A,D|B,E~E2 FEDE|FABc dcBA|!
FBAF E2FE|DB,~B,2 DB,A,2|B,E~E2 FEDE|FBBA ~B3A:|!
|:FBAF A2FA|(3Bcd eg fdde|f2af eafe|dfed BAFE|!
"var."DFBF A2FA|(3Bcd eg fdde|f2af eafe|dBAF ~B3A:|]!
